X:4
T: Young Collins
C: Trad.
Z: From Barrand 
H: Similar but not identical to Sherborne version in Bacon, which Barrand cites as the source.  For one thing, in Bacon the first and fifth full bars of the A part and the fifth full bar of the B part all are the same; here they all are different.  I suspect some of the differences are errors on Barrand's part but maybe not.  
M: C|
L: 1/4
K: G
P:A
D | G G/A/ d d | c c B d | c A/c/ B G | A A G D |
 G G/B/ d d | c c B d | c A/c/ B G | A F G ||
P:B
D | E E E D | F F F> D | G G A/B/c/[A/B/] | [AB] [dB] [d2B2]  |
 G A/B/ d d | c c B d | c A/c/ B G | A F G ||
